src/ipa/rpi/vc4/data/imx355.json
{
    "version": 2.0,
    "target": "bcm2835",
    "algorithms": [
        {
            "rpi.black_level":
            {
                "black_level": 4096
            }
        },
        {
            "rpi.dpc": { }
        },
        {
            "rpi.lux":
            {
                "reference_shutter_speed": 15151,
                "reference_gain": 1.5,
                "reference_aperture": 1.0,
                "reference_lux": 920,
                "reference_Y": 8539
            }
        },
        {
            "rpi.noise":
            {
                "reference_constant": 23,
                "reference_slope": 5.041
            }
        },
        {
            "rpi.geq":
            {
                "offset": 104,
                "slope": 0.01695
            }
        },
        {
            "rpi.sdn": { }
        },
        {
            "rpi.awb":
            {
                "priors": [
                    {
                        "lux": 0,
                        "prior":
                        [
                            2000, 1.0,
                            3000, 0.0,
                            13000, 0.0
                        ]
                    },
                    {
                        "lux": 800,
                        "prior":
                        [
                            2000, 0.0,
                            6000, 2.0,
                            13000, 2.0
                        ]
                    },
                    {
                        "lux": 1500,
                        "prior":
                        [
                            2000, 0.0,
                            4000, 1.0,
                            6000, 6.0,
                            6500, 7.0,
                            7000, 1.0,
                            13000, 1.0
                        ]
                    }
                ],
                "modes":
                {
                    "auto":
                    {
                        "lo": 2920.0,
                        "hi": 5580.0
                    },
                    "incandescent":
                    {
                        "lo": 2920.0,
                        "hi": 3000
                    },
                    "tungsten":
                    {
                        "lo": 3000,
                        "hi": 3500
                    },
                    "fluorescent":
                    {
                        "lo": 4000,
                        "hi": 4700
                    },
                    "indoor":
                    {
                        "lo": 3000,
                        "hi": 5000
                    },
                    "daylight":
                    {
                        "lo": 5500,
                        "hi": 5580.0
                    },
                    "cloudy":
                    {
                        "lo": 5580.0,
                        "hi": 5580.0
                    }
                },
                "bayes": 1,
                "ct_curve":
                [
                    2920.0, 0.8302, 0.4567,
                    3630.0, 0.7135, 0.5308,
                    4550.0, 0.5662, 0.6699,
                    5580.0, 0.5343, 0.7087
                ],
                "sensitivity_r": 1.0,
                "sensitivity_b": 1.0,
                "transverse_pos": 0.01,
                "transverse_neg": 0.01
            }
        },
        {
            "rpi.agc":
            {
                "metering_modes":
                {
                    "centre-weighted":
                    {
                        "weights":
                        [
                            3, 3, 3, 2, 2, 2, 2, 1, 1, 1, 1, 0, 0, 0, 0
                        ]
                    },
                    "spot":
                    {
                        "weights":
                        [
                            2, 1, 1, 0, 0, 0, 0, 0, 0, 0, 0, 0, 0, 0, 0
                        ]
                    },
                    "matrix":
                    {
                        "weights":
                        [
                            1, 1, 1, 1, 1, 1, 1, 1, 1, 1, 1, 1, 1, 1, 1
                        ]
                    }
                },
                "exposure_modes":
                {
                    "normal":
                    {
                        "shutter": [ 100, 10000, 30000, 60000, 66666 ],
                        "gain": [ 1.0, 2.0, 4.0, 6.0, 8.0 ]
                    },
                    "short":
                    {
                        "shutter": [ 100, 5000, 10000, 20000, 66666 ],
                        "gain": [ 1.0, 2.0, 4.0, 6.0, 8.0 ]
                    },
                    "long":
                    {
                        "shutter": [ 100, 10000, 30000, 60000, 120000 ],
                        "gain": [ 1.0, 2.0, 4.0, 6.0, 8.0 ]
                    }
                },
                "constraint_modes":
                {
                    "normal": [
                        {
                            "bound": "LOWER",
                            "q_lo": 0.98,
                            "q_hi": 1.0,
                            "y_target":
                            [
                                0, 0.5,
                                1000, 0.5
                            ]
                        }
                    ],
                    "highlight": [
                        {
                            "bound": "LOWER",
                            "q_lo": 0.98,
                            "q_hi": 1.0,
                            "y_target":
                            [
                                0, 0.5,
                                1000, 0.5
                            ]
                        },
                        {
                            "bound": "UPPER",
                            "q_lo": 0.98,
                            "q_hi": 1.0,
                            "y_target":
                            [
                                0, 0.8,
                                1000, 0.8
                            ]
                        }
                    ]
                },
                "y_target":
                [
                    0, 0.16,
                    1000, 0.165,
                    10000, 0.17
                ]
            }
        },
        {
            "rpi.alsc":
            {
                "omega": 1.3,
                "n_iter": 100,
                "luminance_strength": 0.8,
                "calibrations_Cr": [
                    {
                        "ct": 2900,
                        "table":
                        [
                            1.546, 1.546, 1.513, 1.438, 1.347, 1.297, 1.289, 1.289, 1.289, 1.305, 1.373, 1.456, 1.512, 1.513, 1.494, 1.486,
                            1.546, 1.516, 1.445, 1.359, 1.269, 1.214, 1.184, 1.184, 1.193, 1.234, 1.296, 1.391, 1.461, 1.512, 1.507, 1.494,
                            1.517, 1.464, 1.359, 1.269, 1.195, 1.122, 1.093, 1.093, 1.104, 1.144, 1.231, 1.296, 1.391, 1.481, 1.509, 1.511,
                            1.494, 1.415, 1.301, 1.195, 1.122, 1.076, 1.033, 1.033, 1.046, 1.104, 1.144, 1.231, 1.337, 1.443, 1.502, 1.511,
                            1.485, 1.382, 1.261, 1.156, 1.076, 1.033, 1.015, 1.002, 1.028, 1.046, 1.107, 1.194, 1.302, 1.415, 1.495, 1.506,
                            1.485, 1.376, 1.257, 1.153, 1.073, 1.024, 1.001, 1.001, 1.009, 1.044, 1.103, 1.191, 1.297, 1.409, 1.491, 1.498,
                            1.485, 1.376, 1.257, 1.153, 1.073, 1.027, 1.015, 1.002, 1.023, 1.044, 1.103, 1.191, 1.297, 1.409, 1.491, 1.499,
                            1.489, 1.407, 1.292, 1.188, 1.111, 1.073, 1.027, 1.027, 1.044, 1.092, 1.135, 1.223, 1.328, 1.432, 1.492, 1.498,
                            1.507, 1.451, 1.349, 1.251, 1.188, 1.111, 1.082, 1.082, 1.092, 1.135, 1.212, 1.279, 1.377, 1.467, 1.498, 1.499,
                            1.529, 1.498, 1.417, 1.347, 1.251, 1.195, 1.164, 1.164, 1.173, 1.212, 1.279, 1.364, 1.437, 1.487, 1.493, 1.484,
                            1.527, 1.508, 1.483, 1.415, 1.348, 1.297, 1.267, 1.267, 1.275, 1.311, 1.362, 1.429, 1.487, 1.496, 1.485, 1.451,
                            1.525, 1.508, 1.507, 1.458, 1.401, 1.348, 1.314, 1.314, 1.314, 1.362, 1.409, 1.464, 1.498, 1.499, 1.451, 1.439
                        ]
                    },
                    {
                        "ct": 5900,
                        "table":
                        [
                            1.451, 1.449, 1.415, 1.349, 1.276, 1.239, 1.234, 1.234, 1.234, 1.248, 1.305, 1.373, 1.424, 1.425, 1.425, 1.419,
                            1.449, 1.416, 1.359, 1.285, 1.214, 1.169, 1.145, 1.145, 1.156, 1.191, 1.242, 1.321, 1.377, 1.425, 1.426, 1.425,
                            1.415, 1.369, 1.285, 1.214, 1.151, 1.094, 1.071, 1.071, 1.084, 1.121, 1.191, 1.242, 1.321, 1.395, 1.425, 1.428,
                            1.395, 1.329, 1.236, 1.151, 1.094, 1.055, 1.023, 1.023, 1.041, 1.084, 1.121, 1.193, 1.278, 1.364, 1.422, 1.429,
                            1.387, 1.302, 1.205, 1.119, 1.055, 1.023, 1.008, 1.006, 1.021, 1.041, 1.093, 1.164, 1.251, 1.342, 1.409, 1.422,
                            1.387, 1.299, 1.203, 1.119, 1.055, 1.016, 1.001, 1.001, 1.012, 1.041, 1.092, 1.163, 1.249, 1.338, 1.404, 1.418,
                            1.387, 1.299, 1.203, 1.119, 1.056, 1.024, 1.008, 1.006, 1.022, 1.042, 1.093, 1.163, 1.249, 1.338, 1.404, 1.416,
                            1.391, 1.322, 1.232, 1.149, 1.093, 1.056, 1.024, 1.024, 1.042, 1.082, 1.119, 1.191, 1.273, 1.357, 1.409, 1.416,
                            1.403, 1.358, 1.278, 1.206, 1.149, 1.093, 1.071, 1.071, 1.082, 1.119, 1.182, 1.236, 1.313, 1.383, 1.411, 1.413,
                            1.421, 1.396, 1.334, 1.278, 1.206, 1.162, 1.139, 1.139, 1.149, 1.182, 1.236, 1.302, 1.359, 1.399, 1.409, 1.401,
                            1.421, 1.408, 1.385, 1.333, 1.283, 1.243, 1.222, 1.222, 1.231, 1.259, 1.302, 1.354, 1.399, 1.409, 1.401, 1.375,
                            1.419, 1.408, 1.407, 1.368, 1.324, 1.283, 1.265, 1.265, 1.265, 1.302, 1.343, 1.382, 1.411, 1.411, 1.375, 1.368
                        ]
                    }
                ],
                "calibrations_Cb": [
                    {
                        "ct": 2900,
                        "table":
                        [
                            1.005, 1.004, 1.002, 1.002, 1.004, 1.006, 1.008, 1.011, 1.013, 1.013, 1.013, 1.013, 1.013, 1.017, 1.034, 1.051,
                            1.004, 1.003, 1.002, 1.002, 1.005, 1.007, 1.009, 1.012, 1.014, 1.014, 1.014, 1.013, 1.013, 1.014, 1.018, 1.039,
                            1.002, 1.002, 1.001, 1.004, 1.007, 1.009, 1.013, 1.017, 1.021, 1.021, 1.021, 1.018, 1.013, 1.013, 1.015, 1.035,
                            1.002, 1.002, 1.004, 1.007, 1.009, 1.013, 1.017, 1.022, 1.026, 1.027, 1.026, 1.023, 1.018, 1.014, 1.015, 1.032,
                            1.002, 1.003, 1.006, 1.009, 1.012, 1.016, 1.022, 1.027, 1.032, 1.032, 1.029, 1.026, 1.022, 1.015, 1.015, 1.032,
                            1.003, 1.003, 1.006, 1.011, 1.014, 1.019, 1.026, 1.032, 1.035, 1.035, 1.033, 1.029, 1.023, 1.016, 1.016, 1.031,
                            1.002, 1.003, 1.006, 1.011, 1.014, 1.019, 1.026, 1.029, 1.035, 1.035, 1.031, 1.028, 1.022, 1.015, 1.015, 1.028,
                            1.002, 1.002, 1.004, 1.009, 1.013, 1.016, 1.022, 1.027, 1.029, 1.029, 1.029, 1.024, 1.018, 1.013, 1.013, 1.027,
                            1.001, 1.001, 1.002, 1.005, 1.009, 1.013, 1.017, 1.021, 1.025, 1.025, 1.022, 1.018, 1.013, 1.012, 1.013, 1.028,
                            1.001, 1.001, 1.001, 1.002, 1.006, 1.009, 1.013, 1.017, 1.019, 1.019, 1.017, 1.013, 1.011, 1.011, 1.016, 1.034,
                            1.013, 1.002, 1.001, 1.003, 1.006, 1.009, 1.013, 1.017, 1.019, 1.019, 1.017, 1.015, 1.014, 1.016, 1.039, 1.059,
                            1.031, 1.026, 1.024, 1.024, 1.025, 1.028, 1.029, 1.029, 1.028, 1.029, 1.026, 1.026, 1.027, 1.034, 1.059, 1.065
                        ]
                    },
                    {
                        "ct": 5900,
                        "table":
                        [
                            1.013, 1.013, 1.012, 1.014, 1.017, 1.019, 1.019, 1.021, 1.021, 1.019, 1.019, 1.018, 1.019, 1.019, 1.019, 1.012,
                            1.013, 1.013, 1.014, 1.017, 1.021, 1.022, 1.024, 1.026, 1.026, 1.026, 1.024, 1.022, 1.021, 1.019, 1.018, 1.012,
                            1.013, 1.014, 1.017, 1.021, 1.023, 1.024, 1.027, 1.028, 1.029, 1.029, 1.028, 1.026, 1.023, 1.021, 1.018, 1.006,
                            1.014, 1.017, 1.019, 1.023, 1.025, 1.027, 1.029, 1.032, 1.033, 1.033, 1.032, 1.029, 1.026, 1.023, 1.019, 1.004,
                            1.016, 1.019, 1.022, 1.025, 1.027, 1.029, 1.032, 1.036, 1.036, 1.035, 1.033, 1.032, 1.029, 1.026, 1.021, 1.005,
                            1.016, 1.019, 1.023, 1.027, 1.029, 1.032, 1.036, 1.036, 1.038, 1.036, 1.035, 1.033, 1.029, 1.026, 1.021, 1.006,
                            1.016, 1.019, 1.023, 1.027, 1.029, 1.032, 1.034, 1.036, 1.038, 1.036, 1.035, 1.033, 1.029, 1.025, 1.021, 1.006,
                            1.015, 1.018, 1.021, 1.025, 1.028, 1.031, 1.033, 1.034, 1.035, 1.035, 1.033, 1.031, 1.027, 1.023, 1.019, 1.006,
                            1.014, 1.015, 1.019, 1.023, 1.026, 1.028, 1.031, 1.032, 1.033, 1.033, 1.031, 1.027, 1.024, 1.022, 1.019, 1.011,
                            1.014, 1.014, 1.015, 1.019, 1.023, 1.026, 1.028, 1.031, 1.031, 1.029, 1.027, 1.023, 1.022, 1.021, 1.019, 1.016,
                            1.012, 1.013, 1.013, 1.013, 1.015, 1.017, 1.019, 1.019, 1.019, 1.019, 1.018, 1.018, 1.018, 1.019, 1.019, 1.018,
                            1.005, 1.005, 1.001, 1.002, 1.005, 1.005, 1.006, 1.005, 1.005, 1.003, 1.001, 1.001, 1.006, 1.016, 1.018, 1.021
                        ]
                    }
                ],
                "luminance_lut":
                [
                    2.699, 2.621, 2.331, 2.053, 1.808, 1.688, 1.668, 1.668, 1.668, 1.705, 1.876, 2.137, 2.412, 2.731, 3.198, 3.249,
                    2.621, 2.346, 2.086, 1.838, 1.626, 1.498, 1.426, 1.426, 1.442, 1.531, 1.672, 1.921, 2.155, 2.449, 2.841, 3.198,
                    2.346, 2.134, 1.838, 1.626, 1.452, 1.299, 1.228, 1.228, 1.244, 1.329, 1.514, 1.672, 1.921, 2.238, 2.606, 2.841,
                    2.239, 1.976, 1.682, 1.452, 1.299, 1.191, 1.089, 1.089, 1.104, 1.235, 1.329, 1.514, 1.763, 2.079, 2.449, 2.609,
                    2.202, 1.879, 1.591, 1.364, 1.191, 1.089, 1.045, 1.014, 1.071, 1.104, 1.235, 1.422, 1.667, 1.981, 2.354, 2.568,
                    2.202, 1.866, 1.577, 1.351, 1.178, 1.061, 1.003, 1.001, 1.016, 1.087, 1.218, 1.404, 1.649, 1.962, 2.339, 2.568,
                    2.202, 1.866, 1.577, 1.351, 1.178, 1.064, 1.045, 1.003, 1.049, 1.087, 1.218, 1.404, 1.649, 1.962, 2.339, 2.568,
                    2.227, 1.946, 1.652, 1.422, 1.251, 1.176, 1.064, 1.064, 1.087, 1.194, 1.289, 1.477, 1.726, 2.043, 2.415, 2.589,
                    2.306, 2.084, 1.786, 1.553, 1.422, 1.251, 1.179, 1.179, 1.194, 1.289, 1.455, 1.605, 1.861, 2.178, 2.547, 2.765,
                    2.535, 2.277, 1.993, 1.786, 1.553, 1.427, 1.355, 1.355, 1.371, 1.455, 1.605, 1.847, 2.057, 2.369, 2.765, 3.113,
                    2.749, 2.535, 2.241, 1.993, 1.802, 1.669, 1.593, 1.593, 1.609, 1.698, 1.847, 2.052, 2.311, 2.626, 3.113, 3.462,
                    2.953, 2.749, 2.441, 2.194, 1.993, 1.802, 1.759, 1.759, 1.759, 1.847, 2.043, 2.251, 2.506, 2.861, 3.462, 3.566
                ],
                "sigma": 0.00715,
                "sigma_Cb": 0.00323
            }
        },
        {
            "rpi.contrast":
            {
                "ce_enable": 1,
                "gamma_curve":
                [
                    0, 0,
                    1024, 5040,
                    2048, 9338,
                    3072, 12356,
                    4096, 15312,
                    5120, 18051,
                    6144, 20790,
                    7168, 23193,
                    8192, 25744,
                    9216, 27942,
                    10240, 30035,
                    11264, 32005,
                    12288, 33975,
                    13312, 35815,
                    14336, 37600,
                    15360, 39168,
                    16384, 40642,
                    18432, 43379,
                    20480, 45749,
                    22528, 47753,
                    24576, 49621,
                    26624, 51253,
                    28672, 52698,
                    30720, 53796,
                    32768, 54876,
                    36864, 57012,
                    40960, 58656,
                    45056, 59954,
                    49152, 61183,
                    53248, 62355,
                    57344, 63419,
                    61440, 64476,
                    65535, 65535
                ]
            }
        },
        {
            "rpi.ccm":
            {
                "ccms": [
                    {
                        "ct": 2920,
                        "ccm":
                        [
                            1.70452, -0.28006, -0.42446,
                            -0.66546, 2.27544, -0.60998,
                            -0.16166, -0.89357, 2.05524
                        ]
                    },
                    {
                        "ct": 3630,
                        "ccm":
                        [
                            1.82077, -0.47914, -0.34163,
                            -0.58711, 2.13712, -0.55002,
                            -0.12653, -0.74572, 1.87226
                        ]
                    },
                    {
                        "ct": 4550,
                        "ccm":
                        [
                            1.80579, -0.47998, -0.32582,
                            -0.52116, 2.23331, -0.71214,
                            -0.11717, -0.64942, 1.76659
                        ]
                    },
                    {
                        "ct": 5580,
                        "ccm":
                        [
                            1.84933, -0.52533, -0.32401,
                            -0.45888, 2.07922, -0.62033,
                            -0.12065, -0.56643, 1.68708
                        ]
                    }
                ]
            }
        },
        {
            "rpi.sharpen":
            {
                "threshold": 0.75,
                "limit": 0.5,
                "strength": 1.0
            }
        },
        {
            "rpi.sync": { }
        }
    ]
}