src/ipa/rpi/vc4/data/imx662.json
{
    "version": 2.0,
    "target": "bcm2835",
    "algorithms": [
        {
            "rpi.black_level":
            {
                "black_level": 3200
            }
        },
        {
            "rpi.dpc": { }
        },
        {
            "rpi.lux":
            {
                "reference_shutter_speed": 3472,
                "reference_gain": 1.0,
                "reference_aperture": 1.0,
                "reference_lux": 1085,
                "reference_Y": 10989
            }
        },
        {
            "rpi.noise":
            {
                "reference_constant": 0,
                "reference_slope": 2.323
            }
        },
        {
            "rpi.geq":
            {
                "offset": 159,
                "slope": 0.01223
            }
        },
        {
            "rpi.sdn": { }
        },
        {
            "rpi.awb":
            {
                "priors": [
                    {
                        "lux": 0,
                        "prior":
                        [
                            2000, 1.0,
                            3000, 0.0,
                            13000, 0.0
                        ]
                    },
                    {
                        "lux": 800,
                        "prior":
                        [
                            2000, 0.0,
                            6000, 2.0,
                            13000, 2.0
                        ]
                    },
                    {
                        "lux": 1500,
                        "prior":
                        [
                            2000, 0.0,
                            4000, 1.0,
                            6000, 6.0,
                            6500, 7.0,
                            7000, 1.0,
                            13000, 1.0
                        ]
                    }
                ],
                "modes":
                {
                    "auto":
                    {
                        "lo": 2910.0,
                        "hi": 5535.0
                    },
                    "incandescent":
                    {
                        "lo": 2910.0,
                        "hi": 3000
                    },
                    "tungsten":
                    {
                        "lo": 3000,
                        "hi": 3500
                    },
                    "fluorescent":
                    {
                        "lo": 4000,
                        "hi": 4700
                    },
                    "indoor":
                    {
                        "lo": 3000,
                        "hi": 5000
                    },
                    "daylight":
                    {
                        "lo": 5500,
                        "hi": 5535.0
                    },
                    "cloudy":
                    {
                        "lo": 5535.0,
                        "hi": 5535.0
                    }
                },
                "bayes": 1,
                "ct_curve":
                [
                    2910.0, 0.5583, 0.3541,
                    3600.0, 0.4695, 0.4348,
                    4490.0, 0.3856, 0.5447,
                    5535.0, 0.3459, 0.6108
                ],
                "sensitivity_r": 1.0,
                "sensitivity_b": 1.0,
                "transverse_pos": 0.01,
                "transverse_neg": 0.01
            }
        },
        {
            "rpi.agc":
            {
                "metering_modes":
                {
                    "centre-weighted":
                    {
                        "weights":
                        [
                            3, 3, 3, 2, 2, 2, 2, 1, 1, 1, 1, 0, 0, 0, 0
                        ]
                    },
                    "spot":
                    {
                        "weights":
                        [
                            2, 1, 1, 0, 0, 0, 0, 0, 0, 0, 0, 0, 0, 0, 0
                        ]
                    },
                    "matrix":
                    {
                        "weights":
                        [
                            1, 1, 1, 1, 1, 1, 1, 1, 1, 1, 1, 1, 1, 1, 1
                        ]
                    }
                },
                "exposure_modes":
                {
                    "normal":
                    {
                        "shutter": [ 100, 10000, 30000, 60000, 66666 ],
                        "gain": [ 1.0, 2.0, 4.0, 6.0, 8.0 ]
                    },
                    "short":
                    {
                        "shutter": [ 100, 5000, 10000, 20000, 66666 ],
                        "gain": [ 1.0, 2.0, 4.0, 6.0, 8.0 ]
                    },
                    "long":
                    {
                        "shutter": [ 100, 10000, 30000, 60000, 120000 ],
                        "gain": [ 1.0, 2.0, 4.0, 6.0, 8.0 ]
                    }
                },
                "constraint_modes":
                {
                    "normal": [
                        {
                            "bound": "LOWER",
                            "q_lo": 0.98,
                            "q_hi": 1.0,
                            "y_target":
                            [
                                0, 0.5,
                                1000, 0.5
                            ]
                        }
                    ],
                    "highlight": [
                        {
                            "bound": "LOWER",
                            "q_lo": 0.98,
                            "q_hi": 1.0,
                            "y_target":
                            [
                                0, 0.5,
                                1000, 0.5
                            ]
                        },
                        {
                            "bound": "UPPER",
                            "q_lo": 0.98,
                            "q_hi": 1.0,
                            "y_target":
                            [
                                0, 0.8,
                                1000, 0.8
                            ]
                        }
                    ]
                },
                "y_target":
                [
                    0, 0.16,
                    1000, 0.165,
                    10000, 0.17
                ]
            }
        },
        {
            "rpi.alsc":
            {
                "omega": 1.3,
                "n_iter": 100,
                "luminance_strength": 0.8,
                "calibrations_Cr": [
                    {
                        "ct": 3500,
                        "table":
                        [
                            1.029, 1.025, 1.019, 1.014, 1.011, 1.008, 1.007, 1.006, 1.006, 1.008, 1.009, 1.013, 1.017, 1.021, 1.026, 1.028,
                            1.027, 1.023, 1.017, 1.012, 1.009, 1.007, 1.005, 1.005, 1.005, 1.006, 1.008, 1.011, 1.015, 1.019, 1.025, 1.028,
                            1.026, 1.021, 1.014, 1.009, 1.007, 1.005, 1.003, 1.002, 1.002, 1.004, 1.006, 1.009, 1.013, 1.017, 1.022, 1.025,
                            1.025, 1.019, 1.013, 1.008, 1.005, 1.003, 1.002, 1.001, 1.001, 1.002, 1.004, 1.007, 1.011, 1.016, 1.021, 1.024,
                            1.025, 1.019, 1.013, 1.008, 1.005, 1.002, 1.001, 1.001, 1.001, 1.002, 1.004, 1.007, 1.011, 1.016, 1.021, 1.024,
                            1.025, 1.019, 1.013, 1.009, 1.005, 1.003, 1.001, 1.001, 1.001, 1.002, 1.004, 1.007, 1.012, 1.016, 1.021, 1.024,
                            1.026, 1.021, 1.014, 1.009, 1.006, 1.003, 1.002, 1.001, 1.002, 1.003, 1.005, 1.009, 1.013, 1.017, 1.022, 1.025,
                            1.027, 1.022, 1.015, 1.011, 1.007, 1.005, 1.003, 1.003, 1.003, 1.005, 1.007, 1.009, 1.014, 1.018, 1.023, 1.027,
                            1.028, 1.023, 1.017, 1.013, 1.009, 1.007, 1.005, 1.005, 1.005, 1.007, 1.009, 1.012, 1.016, 1.021, 1.025, 1.028,
                            1.029, 1.025, 1.019, 1.015, 1.012, 1.009, 1.007, 1.007, 1.007, 1.009, 1.012, 1.015, 1.018, 1.023, 1.027, 1.032,
                            1.033, 1.029, 1.023, 1.019, 1.015, 1.012, 1.011, 1.011, 1.011, 1.012, 1.015, 1.018, 1.022, 1.027, 1.032, 1.035,
                            1.036, 1.033, 1.027, 1.022, 1.018, 1.015, 1.014, 1.014, 1.014, 1.015, 1.018, 1.021, 1.026, 1.031, 1.035, 1.036
                        ]
                    },
                    {
                        "ct": 6000,
                        "table":
                        [
                            1.035, 1.028, 1.021, 1.015, 1.011, 1.009, 1.009, 1.009, 1.009, 1.013, 1.018, 1.025, 1.032, 1.041, 1.053, 1.057,
                            1.033, 1.023, 1.016, 1.013, 1.009, 1.005, 1.004, 1.004, 1.006, 1.011, 1.014, 1.019, 1.027, 1.035, 1.047, 1.055,
                            1.031, 1.021, 1.014, 1.009, 1.005, 1.004, 1.002, 1.002, 1.004, 1.006, 1.011, 1.018, 1.025, 1.033, 1.045, 1.052,
                            1.031, 1.021, 1.012, 1.008, 1.004, 1.002, 1.001, 1.001, 1.002, 1.004, 1.009, 1.016, 1.024, 1.032, 1.043, 1.051,
                            1.029, 1.019, 1.012, 1.008, 1.004, 1.001, 1.001, 1.001, 1.001, 1.003, 1.008, 1.015, 1.023, 1.031, 1.042, 1.051,
                            1.029, 1.021, 1.012, 1.008, 1.004, 1.001, 1.001, 1.001, 1.001, 1.003, 1.008, 1.015, 1.023, 1.031, 1.041, 1.051,
                            1.029, 1.021, 1.013, 1.009, 1.004, 1.002, 1.001, 1.001, 1.002, 1.004, 1.009, 1.016, 1.023, 1.031, 1.042, 1.051,
                            1.032, 1.023, 1.015, 1.011, 1.006, 1.004, 1.002, 1.002, 1.004, 1.006, 1.011, 1.017, 1.024, 1.032, 1.043, 1.052,
                            1.033, 1.025, 1.017, 1.013, 1.009, 1.006, 1.004, 1.004, 1.006, 1.009, 1.013, 1.019, 1.027, 1.035, 1.046, 1.053,
                            1.036, 1.029, 1.022, 1.017, 1.013, 1.009, 1.007, 1.007, 1.009, 1.013, 1.018, 1.022, 1.029, 1.038, 1.049, 1.056,
                            1.039, 1.034, 1.026, 1.021, 1.017, 1.015, 1.013, 1.013, 1.015, 1.017, 1.022, 1.028, 1.035, 1.045, 1.056, 1.059,
                            1.046, 1.037, 1.028, 1.024, 1.021, 1.017, 1.015, 1.015, 1.017, 1.021, 1.024, 1.031, 1.038, 1.047, 1.057, 1.064
                        ]
                    }
                ],
                "calibrations_Cb": [
                    {
                        "ct": 3500,
                        "table":
                        [
                            1.002, 1.004, 1.008, 1.011, 1.013, 1.015, 1.017, 1.017, 1.017, 1.016, 1.014, 1.012, 1.011, 1.007, 1.004, 1.002,
                            1.002, 1.005, 1.009, 1.013, 1.015, 1.016, 1.017, 1.017, 1.017, 1.017, 1.016, 1.013, 1.011, 1.008, 1.005, 1.003,
                            1.003, 1.006, 1.011, 1.014, 1.016, 1.017, 1.018, 1.018, 1.018, 1.018, 1.017, 1.014, 1.011, 1.009, 1.006, 1.005,
                            1.003, 1.007, 1.011, 1.014, 1.016, 1.018, 1.019, 1.019, 1.019, 1.019, 1.017, 1.015, 1.012, 1.009, 1.006, 1.005,
                            1.004, 1.007, 1.011, 1.014, 1.017, 1.018, 1.019, 1.021, 1.021, 1.019, 1.018, 1.016, 1.013, 1.011, 1.007, 1.006,
                            1.004, 1.008, 1.012, 1.015, 1.017, 1.019, 1.021, 1.021, 1.021, 1.019, 1.018, 1.017, 1.013, 1.011, 1.008, 1.007,
                            1.004, 1.008, 1.012, 1.015, 1.017, 1.019, 1.021, 1.022, 1.022, 1.019, 1.018, 1.017, 1.013, 1.011, 1.008, 1.007,
                            1.004, 1.008, 1.011, 1.014, 1.017, 1.019, 1.019, 1.021, 1.019, 1.019, 1.017, 1.016, 1.012, 1.009, 1.008, 1.007,
                            1.003, 1.006, 1.011, 1.013, 1.016, 1.018, 1.019, 1.019, 1.019, 1.017, 1.016, 1.015, 1.011, 1.009, 1.006, 1.005,
                            1.002, 1.005, 1.009, 1.012, 1.015, 1.017, 1.018, 1.018, 1.017, 1.017, 1.015, 1.013, 1.011, 1.008, 1.005, 1.004,
                            1.001, 1.005, 1.009, 1.011, 1.014, 1.016, 1.017, 1.017, 1.017, 1.016, 1.015, 1.013, 1.011, 1.007, 1.005, 1.004,
                            1.001, 1.005, 1.009, 1.011, 1.014, 1.016, 1.017, 1.017, 1.016, 1.016, 1.015, 1.012, 1.011, 1.006, 1.005, 1.003
                        ]
                    },
                    {
                        "ct": 6000,
                        "table":
                        [
                            1.011, 1.009, 1.009, 1.011, 1.012, 1.013, 1.014, 1.014, 1.013, 1.009, 1.008, 1.006, 1.003, 1.001, 1.001, 1.001,
                            1.011, 1.009, 1.009, 1.011, 1.013, 1.014, 1.015, 1.015, 1.013, 1.012, 1.009, 1.007, 1.003, 1.001, 1.001, 1.001,
                            1.011, 1.011, 1.011, 1.012, 1.014, 1.016, 1.016, 1.016, 1.015, 1.013, 1.011, 1.008, 1.004, 1.001, 1.001, 1.002,
                            1.011, 1.011, 1.011, 1.013, 1.016, 1.017, 1.018, 1.018, 1.016, 1.015, 1.012, 1.008, 1.005, 1.002, 1.001, 1.002,
                            1.011, 1.011, 1.011, 1.015, 1.016, 1.017, 1.018, 1.019, 1.018, 1.016, 1.012, 1.009, 1.006, 1.002, 1.002, 1.003,
                            1.011, 1.011, 1.013, 1.014, 1.016, 1.017, 1.021, 1.021, 1.019, 1.016, 1.013, 1.009, 1.007, 1.003, 1.003, 1.004,
                            1.011, 1.011, 1.012, 1.013, 1.016, 1.016, 1.019, 1.019, 1.017, 1.015, 1.013, 1.009, 1.006, 1.003, 1.003, 1.004,
                            1.011, 1.011, 1.011, 1.013, 1.014, 1.016, 1.017, 1.017, 1.015, 1.014, 1.012, 1.009, 1.006, 1.003, 1.003, 1.004,
                            1.011, 1.011, 1.011, 1.011, 1.013, 1.014, 1.016, 1.015, 1.014, 1.013, 1.011, 1.008, 1.006, 1.003, 1.003, 1.003,
                            1.011, 1.007, 1.007, 1.009, 1.011, 1.013, 1.013, 1.013, 1.013, 1.011, 1.009, 1.007, 1.005, 1.003, 1.002, 1.003,
                            1.006, 1.006, 1.007, 1.009, 1.011, 1.011, 1.012, 1.012, 1.011, 1.009, 1.007, 1.006, 1.003, 1.002, 1.002, 1.001,
                            1.005, 1.006, 1.007, 1.008, 1.009, 1.011, 1.011, 1.011, 1.009, 1.008, 1.006, 1.004, 1.002, 1.001, 1.001, 1.001
                        ]
                    }
                ],
                "luminance_lut":
                [
                    1.994, 1.771, 1.531, 1.374, 1.268, 1.197, 1.143, 1.143, 1.145, 1.168, 1.235, 1.322, 1.452, 1.641, 1.937, 2.017,
                    1.871, 1.651, 1.438, 1.295, 1.201, 1.149, 1.099, 1.095, 1.099, 1.126, 1.182, 1.251, 1.369, 1.541, 1.801, 1.941,
                    1.791, 1.566, 1.371, 1.239, 1.149, 1.099, 1.059, 1.056, 1.065, 1.083, 1.131, 1.199, 1.309, 1.469, 1.706, 1.829,
                    1.745, 1.509, 1.326, 1.201, 1.115, 1.059, 1.041, 1.018, 1.025, 1.058, 1.096, 1.166, 1.269, 1.422, 1.645, 1.784,
                    1.726, 1.476, 1.299, 1.178, 1.096, 1.041, 1.013, 1.004, 1.009, 1.032, 1.076, 1.146, 1.247, 1.394, 1.612, 1.771,
                    1.726, 1.464, 1.291, 1.169, 1.089, 1.034, 1.004, 1.001, 1.002, 1.022, 1.071, 1.141, 1.241, 1.387, 1.602, 1.771,
                    1.726, 1.471, 1.295, 1.174, 1.094, 1.038, 1.009, 1.003, 1.009, 1.027, 1.074, 1.145, 1.246, 1.393, 1.612, 1.772,
                    1.734, 1.498, 1.318, 1.194, 1.111, 1.059, 1.026, 1.014, 1.027, 1.045, 1.091, 1.164, 1.268, 1.421, 1.647, 1.788,
                    1.769, 1.547, 1.359, 1.229, 1.143, 1.089, 1.059, 1.039, 1.045, 1.086, 1.122, 1.197, 1.306, 1.467, 1.709, 1.831,
                    1.831, 1.622, 1.419, 1.282, 1.194, 1.134, 1.094, 1.082, 1.086, 1.122, 1.172, 1.247, 1.364, 1.538, 1.806, 1.946,
                    1.939, 1.728, 1.504, 1.354, 1.252, 1.185, 1.148, 1.136, 1.141, 1.172, 1.228, 1.314, 1.444, 1.637, 1.946, 2.061,
                    2.103, 1.814, 1.571, 1.411, 1.302, 1.231, 1.188, 1.176, 1.181, 1.217, 1.276, 1.368, 1.508, 1.718, 2.061, 2.211
                ],
                "sigma": 0.00149,
                "sigma_Cb": 0.00113
            }
        },
        {
            "rpi.contrast":
            {
                "ce_enable": 1,
                "gamma_curve":
                [
                    0, 0,
                    1024, 5040,
                    2048, 9338,
                    3072, 12356,
                    4096, 15312,
                    5120, 18051,
                    6144, 20790,
                    7168, 23193,
                    8192, 25744,
                    9216, 27942,
                    10240, 30035,
                    11264, 32005,
                    12288, 33975,
                    13312, 35815,
                    14336, 37600,
                    15360, 39168,
                    16384, 40642,
                    18432, 43379,
                    20480, 45749,
                    22528, 47753,
                    24576, 49621,
                    26624, 51253,
                    28672, 52698,
                    30720, 53796,
                    32768, 54876,
                    36864, 57012,
                    40960, 58656,
                    45056, 59954,
                    49152, 61183,
                    53248, 62355,
                    57344, 63419,
                    61440, 64476,
                    65535, 65535
                ]
            }
        },
        {
            "rpi.ccm":
            {
                "ccms": [
                    {
                        "ct": 2910,
                        "ccm":
                        [
                            1.56177, -0.33819, -0.22358,
                            -0.46832, 1.83364, -0.36532,
                            0.01216, -0.64547, 1.63331
                        ]
                    },
                    {
                        "ct": 3600,
                        "ccm":
                        [
                            1.61475, -0.41257, -0.20218,
                            -0.42936, 1.78306, -0.35371,
                            -0.03609, -0.49297, 1.52906
                        ]
                    },
                    {
                        "ct": 4490,
                        "ccm":
                        [
                            1.60845, -0.38446, -0.22399,
                            -0.37474, 1.86511, -0.49037,
                            -0.04819, -0.44548, 1.49367
                        ]
                    },
                    {
                        "ct": 5535,
                        "ccm":
                        [
                            1.65617, -0.44054, -0.21563,
                            -0.34699, 1.76672, -0.41973,
                            -0.06483, -0.39298, 1.45781
                        ]
                    }
                ]
            }
        },
        {
            "rpi.sharpen":
            {
                "threshold": 0.75,
                "limit": 0.5,
                "strength": 1.0
            }
        },
        {
            "rpi.sync": { }
        }
    ]
}