src/ipa/rpi/pisp/data/mira220.json
{
    "version": 2.0,
    "target": "pisp",
    "algorithms": [
        {
            "rpi.black_level":
            {
                "black_level": 3600
            }
        },
        {
            "rpi.dpc": { }
        },
        {
            "rpi.lux":
            {
                "reference_shutter_speed": 33316,
                "reference_gain": 1.0,
                "reference_aperture": 1.0,
                "reference_lux": 530,
                "reference_Y": 9873
            }
        },
        {
            "rpi.noise":
            {
                "reference_constant": 0,
                "reference_slope": 1.449
            }
        },
        {
            "rpi.geq":
            {
                "offset": 271,
                "slope": 0.00179
            }
        },
        {
            "rpi.denoise":
            {
                "normal":
                {
                    "sdn":
                    {
                        "deviation": 1.6,
                        "strength": 0.5,
                        "deviation2": 3.2,
                        "deviation_no_tdn": 3.2,
                        "strength_no_tdn": 0.75
                    },
                    "cdn":
                    {
                        "deviation": 200,
                        "strength": 0.3
                    },
                    "tdn":
                    {
                        "deviation": 0.8,
                        "threshold": 0.05
                    }
                },
                "hdr":
                {
                    "sdn":
                    {
                        "deviation": 1.6,
                        "strength": 0.5,
                        "deviation2": 3.2,
                        "deviation_no_tdn": 3.2,
                        "strength_no_tdn": 0.75
                    },
                    "cdn":
                    {
                        "deviation": 200,
                        "strength": 0.3
                    },
                    "tdn":
                    {
                        "deviation": 1.3,
                        "threshold": 0.1
                    }
                },
                "night":
                {
                    "sdn":
                    {
                        "deviation": 1.6,
                        "strength": 0.5,
                        "deviation2": 3.2,
                        "deviation_no_tdn": 3.2,
                        "strength_no_tdn": 0.75
                    },
                    "cdn":
                    {
                        "deviation": 200,
                        "strength": 0.3
                    },
                    "tdn":
                    {
                        "deviation": 1.3,
                        "threshold": 0.1
                    }
                }
            }
        },
        {
            "rpi.awb":
            {
                "priors": [
                    {
                        "lux": 0,
                        "prior":
                        [
                            2000, 1.0,
                            3000, 0.0,
                            13000, 0.0
                        ]
                    },
                    {
                        "lux": 800,
                        "prior":
                        [
                            2000, 0.0,
                            6000, 2.0,
                            13000, 2.0
                        ]
                    },
                    {
                        "lux": 1500,
                        "prior":
                        [
                            2000, 0.0,
                            4000, 1.0,
                            6000, 6.0,
                            6500, 7.0,
                            7000, 1.0,
                            13000, 1.0
                        ]
                    }
                ],
                "modes":
                {
                    "auto":
                    {
                        "lo": 2500,
                        "hi": 8000
                    },
                    "incandescent":
                    {
                        "lo": 2500,
                        "hi": 3000
                    },
                    "tungsten":
                    {
                        "lo": 3000,
                        "hi": 3500
                    },
                    "fluorescent":
                    {
                        "lo": 4000,
                        "hi": 4700
                    },
                    "indoor":
                    {
                        "lo": 3000,
                        "hi": 5000
                    },
                    "daylight":
                    {
                        "lo": 5500,
                        "hi": 6500
                    },
                    "cloudy":
                    {
                        "lo": 7000,
                        "hi": 8600
                    }
                },
                "bayes": 1,
                "ct_curve":
                [
                    3200.0, 0.8663, 0.5414,
                    5000.0, 0.7241, 0.6964,
                    6420.0, 0.6597, 0.7718,
                    7900.0, 0.6173, 0.8232,
                    8800.0, 0.5982, 0.8468
                ],
                "sensitivity_r": 1.0,
                "sensitivity_b": 1.0,
                "transverse_pos": 0.03,
                "transverse_neg": 0.03
            }
        },
        {
            "rpi.agc":
            {
                "metering_modes":
                {
                    "centre-weighted":
                    {
                        "weights":
                        [
                            0, 0, 1, 1, 1, 1, 1, 1, 1, 1, 1, 1, 1, 0, 0,
                            0, 1, 1, 1, 1, 1, 2, 2, 2, 1, 1, 1, 1, 1, 0,
                            1, 1, 1, 1, 2, 2, 2, 2, 2, 2, 2, 1, 1, 1, 1,
                            1, 1, 2, 2, 2, 2, 2, 2, 2, 2, 2, 2, 2, 1, 1,
                            1, 1, 2, 2, 2, 2, 3, 3, 3, 2, 2, 2, 2, 1, 1,
                            1, 1, 2, 2, 2, 3, 3, 3, 3, 3, 2, 2, 2, 1, 1,
                            1, 1, 2, 2, 3, 3, 3, 4, 3, 3, 3, 2, 2, 1, 1,
                            1, 1, 2, 2, 3, 3, 4, 4, 4, 3, 3, 2, 2, 1, 1,
                            1, 1, 2, 2, 3, 3, 3, 4, 3, 3, 3, 2, 2, 1, 1,
                            1, 1, 2, 2, 2, 3, 3, 3, 3, 3, 2, 2, 2, 1, 1,
                            1, 1, 2, 2, 2, 2, 3, 3, 3, 2, 2, 2, 2, 1, 1,
                            1, 1, 2, 2, 2, 2, 2, 2, 2, 2, 2, 2, 2, 1, 1,
                            1, 1, 1, 1, 2, 2, 2, 2, 2, 2, 2, 1, 1, 1, 1,
                            0, 1, 1, 1, 1, 1, 2, 2, 2, 1, 1, 1, 1, 1, 0,
                            0, 0, 1, 1, 1, 1, 1, 1, 1, 1, 1, 1, 1, 0, 0
                        ]
                    },
                    "spot":
                    {
                        "weights":
                        [
                            0, 0, 0, 0, 0, 0, 0, 0, 0, 0, 0, 0, 0, 0, 0,
                            0, 0, 0, 0, 0, 0, 0, 0, 0, 0, 0, 0, 0, 0, 0,
                            0, 0, 0, 0, 0, 0, 0, 0, 0, 0, 0, 0, 0, 0, 0,
                            0, 0, 0, 0, 0, 0, 0, 0, 0, 0, 0, 0, 0, 0, 0,
                            0, 0, 0, 0, 0, 0, 0, 0, 0, 0, 0, 0, 0, 0, 0,
                            0, 0, 0, 0, 0, 0, 0, 1, 0, 0, 0, 0, 0, 0, 0,
                            0, 0, 0, 0, 0, 0, 1, 2, 1, 0, 0, 0, 0, 0, 0,
                            0, 0, 0, 0, 0, 1, 2, 3, 2, 1, 0, 0, 0, 0, 0,
                            0, 0, 0, 0, 0, 0, 1, 2, 1, 0, 0, 0, 0, 0, 0,
                            0, 0, 0, 0, 0, 0, 0, 1, 0, 0, 0, 0, 0, 0, 0,
                            0, 0, 0, 0, 0, 0, 0, 0, 0, 0, 0, 0, 0, 0, 0,
                            0, 0, 0, 0, 0, 0, 0, 0, 0, 0, 0, 0, 0, 0, 0,
                            0, 0, 0, 0, 0, 0, 0, 0, 0, 0, 0, 0, 0, 0, 0,
                            0, 0, 0, 0, 0, 0, 0, 0, 0, 0, 0, 0, 0, 0, 0,
                            0, 0, 0, 0, 0, 0, 0, 0, 0, 0, 0, 0, 0, 0, 0
                        ]
                    },
                    "matrix":
                    {
                        "weights":
                        [
                            1, 1, 1, 1, 1, 1, 1, 1, 1, 1, 1, 1, 1, 1, 1,
                            1, 1, 1, 1, 1, 1, 1, 1, 1, 1, 1, 1, 1, 1, 1,
                            1, 1, 1, 1, 1, 1, 1, 1, 1, 1, 1, 1, 1, 1, 1,
                            1, 1, 1, 1, 1, 1, 1, 1, 1, 1, 1, 1, 1, 1, 1,
                            1, 1, 1, 1, 1, 1, 1, 1, 1, 1, 1, 1, 1, 1, 1,
                            1, 1, 1, 1, 1, 1, 1, 1, 1, 1, 1, 1, 1, 1, 1,
                            1, 1, 1, 1, 1, 1, 1, 1, 1, 1, 1, 1, 1, 1, 1,
                            1, 1, 1, 1, 1, 1, 1, 1, 1, 1, 1, 1, 1, 1, 1,
                            1, 1, 1, 1, 1, 1, 1, 1, 1, 1, 1, 1, 1, 1, 1,
                            1, 1, 1, 1, 1, 1, 1, 1, 1, 1, 1, 1, 1, 1, 1,
                            1, 1, 1, 1, 1, 1, 1, 1, 1, 1, 1, 1, 1, 1, 1,
                            1, 1, 1, 1, 1, 1, 1, 1, 1, 1, 1, 1, 1, 1, 1,
                            1, 1, 1, 1, 1, 1, 1, 1, 1, 1, 1, 1, 1, 1, 1,
                            1, 1, 1, 1, 1, 1, 1, 1, 1, 1, 1, 1, 1, 1, 1,
                            1, 1, 1, 1, 1, 1, 1, 1, 1, 1, 1, 1, 1, 1, 1
                        ]
                    }
                },
                "exposure_modes":
                {
                    "normal":
                    {
                        "shutter": [ 100, 10000, 30000, 60000, 120000 ],
                        "gain": [ 1.0, 2.0, 4.0, 6.0, 6.0 ]
                    },
                    "short":
                    {
                        "shutter": [ 100, 5000, 10000, 20000, 120000 ],
                        "gain": [ 1.0, 2.0, 4.0, 6.0, 6.0 ]
                    }
                },
                "constraint_modes":
                {
                    "normal": [
                        {
                            "bound": "LOWER",
                            "q_lo": 0.98,
                            "q_hi": 1.0,
                            "y_target":
                            [
                                0, 0.5,
                                1000, 0.5
                            ]
                        }
                    ],
                    "highlight": [
                        {
                            "bound": "LOWER",
                            "q_lo": 0.98,
                            "q_hi": 1.0,
                            "y_target":
                            [
                                0, 0.5,
                                1000, 0.5
                            ]
                        },
                        {
                            "bound": "UPPER",
                            "q_lo": 0.98,
                            "q_hi": 1.0,
                            "y_target":
                            [
                                0, 0.8,
                                1000, 0.8
                            ]
                        }
                    ]
                },
                "y_target":
                [
                    0, 0.16,
                    1000, 0.165,
                    10000, 0.17
                ]
            }
        },
        {
            "rpi.alsc":
            {
                "omega": 1.3,
                "n_iter": 100,
                "luminance_strength": 0.5,
                "calibrations_Cr": [
                    {
                        "ct": 5440,
                        "table":
                        [
                            1.785, 1.783, 1.781, 1.773, 1.764, 1.758, 1.752, 1.746, 1.741, 1.738, 1.737, 1.736, 1.735, 1.735, 1.735, 1.734, 1.734, 1.733, 1.734, 1.734, 1.735, 1.736, 1.738, 1.74, 1.744, 1.748, 1.753, 1.759, 1.771, 1.781, 1.783, 1.784,
                            1.784, 1.779, 1.775, 1.767, 1.76, 1.753, 1.747, 1.741, 1.736, 1.733, 1.732, 1.73, 1.729, 1.729, 1.728, 1.728, 1.728, 1.728, 1.728, 1.729, 1.729, 1.73, 1.733, 1.736, 1.74, 1.744, 1.749, 1.755, 1.765, 1.775, 1.779, 1.783,
                            1.782, 1.775, 1.769, 1.762, 1.755, 1.749, 1.742, 1.736, 1.731, 1.728, 1.726, 1.725, 1.723, 1.722, 1.722, 1.722, 1.722, 1.722, 1.723, 1.723, 1.724, 1.725, 1.729, 1.732, 1.736, 1.739, 1.744, 1.75, 1.759, 1.769, 1.775, 1.782,
                            1.78, 1.771, 1.763, 1.757, 1.751, 1.744, 1.737, 1.731, 1.726, 1.723, 1.721, 1.719, 1.717, 1.716, 1.715, 1.715, 1.716, 1.716, 1.717, 1.718, 1.718, 1.72, 1.724, 1.728, 1.731, 1.735, 1.74, 1.745, 1.754, 1.762, 1.771, 1.78,
                            1.773, 1.765, 1.757, 1.751, 1.745, 1.738, 1.732, 1.726, 1.721, 1.718, 1.716, 1.714, 1.711, 1.71, 1.709, 1.709, 1.709, 1.71, 1.711, 1.713, 1.713, 1.715, 1.718, 1.722, 1.725, 1.729, 1.734, 1.739, 1.748, 1.756, 1.764, 1.771,
                            1.766, 1.759, 1.752, 1.745, 1.739, 1.733, 1.727, 1.722, 1.717, 1.714, 1.711, 1.708, 1.706, 1.704, 1.703, 1.703, 1.703, 1.704, 1.706, 1.707, 1.708, 1.71, 1.713, 1.716, 1.719, 1.723, 1.728, 1.734, 1.742, 1.75, 1.756, 1.763,
                            1.759, 1.753, 1.747, 1.74, 1.733, 1.728, 1.723, 1.718, 1.713, 1.709, 1.706, 1.703, 1.701, 1.699, 1.698, 1.698, 1.698, 1.698, 1.7, 1.702, 1.703, 1.705, 1.708, 1.711, 1.714, 1.718, 1.723, 1.729, 1.736, 1.743, 1.75, 1.756,
                            1.755, 1.748, 1.742, 1.735, 1.729, 1.724, 1.718, 1.714, 1.709, 1.705, 1.702, 1.699, 1.696, 1.695, 1.694, 1.694, 1.694, 1.694, 1.695, 1.697, 1.699, 1.701, 1.704, 1.707, 1.711, 1.715, 1.719, 1.725, 1.731, 1.738, 1.744, 1.751,
                            1.75, 1.743, 1.737, 1.731, 1.725, 1.719, 1.714, 1.709, 1.705, 1.701, 1.697, 1.694, 1.692, 1.691, 1.69, 1.69, 1.69, 1.69, 1.691, 1.692, 1.694, 1.697, 1.7, 1.704, 1.707, 1.711, 1.716, 1.721, 1.726, 1.732, 1.739, 1.745,
                            1.745, 1.739, 1.732, 1.727, 1.721, 1.716, 1.71, 1.706, 1.702, 1.698, 1.694, 1.691, 1.689, 1.688, 1.687, 1.687, 1.687, 1.687, 1.688, 1.689, 1.692, 1.694, 1.697, 1.701, 1.704, 1.708, 1.713, 1.717, 1.723, 1.728, 1.735, 1.742,
                            1.741, 1.735, 1.728, 1.723, 1.718, 1.712, 1.707, 1.703, 1.699, 1.695, 1.692, 1.689, 1.687, 1.686, 1.685, 1.684, 1.685, 1.685, 1.687, 1.688, 1.69, 1.692, 1.695, 1.698, 1.702, 1.705, 1.71, 1.714, 1.72, 1.727, 1.734, 1.741,
                            1.736, 1.73, 1.724, 1.719, 1.715, 1.709, 1.704, 1.7, 1.696, 1.693, 1.69, 1.687, 1.685, 1.684, 1.682, 1.682, 1.682, 1.683, 1.685, 1.687, 1.688, 1.69, 1.693, 1.696, 1.699, 1.703, 1.706, 1.711, 1.718, 1.725, 1.732, 1.739,
                            1.735, 1.729, 1.723, 1.718, 1.713, 1.708, 1.702, 1.698, 1.694, 1.691, 1.688, 1.686, 1.684, 1.682, 1.681, 1.681, 1.681, 1.682, 1.684, 1.686, 1.687, 1.689, 1.691, 1.694, 1.698, 1.701, 1.705, 1.71, 1.717, 1.724, 1.731, 1.739,
                            1.735, 1.729, 1.722, 1.717, 1.712, 1.707, 1.701, 1.697, 1.693, 1.69, 1.687, 1.685, 1.683, 1.681, 1.68, 1.68, 1.68, 1.681, 1.683, 1.684, 1.686, 1.688, 1.69, 1.693, 1.697, 1.701, 1.705, 1.709, 1.716, 1.723, 1.731, 1.739,
                            1.735, 1.728, 1.722, 1.717, 1.712, 1.706, 1.7, 1.696, 1.692, 1.689, 1.686, 1.684, 1.682, 1.681, 1.68, 1.679, 1.679, 1.68, 1.681, 1.683, 1.685, 1.687, 1.689, 1.692, 1.696, 1.7, 1.704, 1.709, 1.715, 1.722, 1.73, 1.739,
                            1.735, 1.728, 1.721, 1.716, 1.712, 1.706, 1.7, 1.696, 1.692, 1.689, 1.686, 1.684, 1.682, 1.681, 1.68, 1.679, 1.679, 1.68, 1.681, 1.683, 1.685, 1.687, 1.689, 1.692, 1.696, 1.7, 1.704, 1.709, 1.716, 1.722, 1.731, 1.74,
                            1.735, 1.728, 1.721, 1.716, 1.712, 1.706, 1.7, 1.696, 1.693, 1.689, 1.686, 1.684, 1.683, 1.681, 1.68, 1.679, 1.679, 1.68, 1.681, 1.682, 1.685, 1.687, 1.689, 1.692, 1.696, 1.7, 1.705, 1.71, 1.716, 1.723, 1.732, 1.74,
                            1.735, 1.728, 1.722, 1.717, 1.712, 1.706, 1.7, 1.696, 1.693, 1.69, 1.686, 1.684, 1.683, 1.682, 1.68, 1.679, 1.679, 1.68, 1.681, 1.682, 1.685, 1.688, 1.69, 1.692, 1.696, 1.7, 1.705, 1.71, 1.717, 1.724, 1.732, 1.741,
                            1.736, 1.73, 1.724, 1.719, 1.714, 1.708, 1.702, 1.698, 1.694, 1.691, 1.688, 1.686, 1.684, 1.683, 1.681, 1.681, 1.681, 1.681, 1.682, 1.684, 1.686, 1.689, 1.691, 1.694, 1.697, 1.701, 1.706, 1.712, 1.718, 1.725, 1.733, 1.741,
                            1.737, 1.732, 1.726, 1.721, 1.715, 1.709, 1.703, 1.699, 1.696, 1.692, 1.689, 1.687, 1.685, 1.684, 1.683, 1.682, 1.682, 1.683, 1.684, 1.685, 1.687, 1.689, 1.692, 1.695, 1.698, 1.702, 1.708, 1.714, 1.72, 1.726, 1.733, 1.741,
                            1.739, 1.733, 1.728, 1.723, 1.717, 1.711, 1.705, 1.701, 1.698, 1.694, 1.691, 1.688, 1.686, 1.685, 1.684, 1.683, 1.683, 1.684, 1.685, 1.687, 1.689, 1.691, 1.694, 1.697, 1.7, 1.704, 1.709, 1.715, 1.721, 1.727, 1.734, 1.741,
                            1.742, 1.736, 1.731, 1.725, 1.72, 1.714, 1.708, 1.704, 1.7, 1.696, 1.693, 1.691, 1.689, 1.687, 1.686, 1.685, 1.685, 1.686, 1.687, 1.688, 1.69, 1.693, 1.696, 1.699, 1.702, 1.706, 1.711, 1.717, 1.724, 1.73, 1.736, 1.743,
                            1.744, 1.739, 1.733, 1.728, 1.722, 1.717, 1.711, 1.707, 1.702, 1.699, 1.696, 1.693, 1.691, 1.689, 1.688, 1.687, 1.687, 1.687, 1.688, 1.689, 1.692, 1.695, 1.698, 1.701, 1.704, 1.708, 1.713, 1.719, 1.726, 1.733, 1.739, 1.744,
                            1.748, 1.742, 1.736, 1.731, 1.725, 1.72, 1.715, 1.71, 1.705, 1.701, 1.698, 1.696, 1.693, 1.691, 1.69, 1.689, 1.689, 1.69, 1.69, 1.692, 1.694, 1.697, 1.701, 1.704, 1.707, 1.711, 1.716, 1.722, 1.729, 1.736, 1.742, 1.747,
                            1.752, 1.746, 1.741, 1.734, 1.728, 1.723, 1.718, 1.713, 1.708, 1.705, 1.701, 1.699, 1.696, 1.694, 1.693, 1.693, 1.693, 1.693, 1.694, 1.695, 1.697, 1.7, 1.703, 1.706, 1.71, 1.714, 1.72, 1.725, 1.732, 1.74, 1.746, 1.752,
                            1.756, 1.751, 1.745, 1.738, 1.731, 1.726, 1.722, 1.717, 1.712, 1.708, 1.704, 1.701, 1.699, 1.697, 1.696, 1.696, 1.696, 1.696, 1.697, 1.698, 1.7, 1.702, 1.705, 1.708, 1.713, 1.718, 1.723, 1.729, 1.736, 1.743, 1.75, 1.756,
                            1.762, 1.756, 1.749, 1.742, 1.735, 1.73, 1.725, 1.721, 1.716, 1.712, 1.708, 1.705, 1.703, 1.701, 1.7, 1.7, 1.7, 1.7, 1.701, 1.702, 1.704, 1.706, 1.709, 1.712, 1.717, 1.722, 1.727, 1.733, 1.741, 1.748, 1.755, 1.762,
                            1.768, 1.761, 1.754, 1.747, 1.741, 1.735, 1.729, 1.724, 1.72, 1.716, 1.713, 1.71, 1.708, 1.706, 1.705, 1.704, 1.704, 1.704, 1.704, 1.706, 1.708, 1.71, 1.713, 1.717, 1.721, 1.726, 1.732, 1.738, 1.746, 1.753, 1.761, 1.768,
                            1.774, 1.766, 1.759, 1.752, 1.746, 1.739, 1.733, 1.728, 1.724, 1.721, 1.717, 1.715, 1.713, 1.711, 1.709, 1.708, 1.708, 1.708, 1.708, 1.709, 1.712, 1.714, 1.718, 1.721, 1.725, 1.73, 1.736, 1.743, 1.751, 1.759, 1.766, 1.774,
                            1.776, 1.77, 1.764, 1.757, 1.75, 1.743, 1.736, 1.732, 1.728, 1.725, 1.722, 1.719, 1.718, 1.716, 1.714, 1.713, 1.713, 1.713, 1.713, 1.714, 1.716, 1.719, 1.722, 1.725, 1.729, 1.734, 1.741, 1.748, 1.756, 1.764, 1.77, 1.776,
                            1.776, 1.773, 1.77, 1.762, 1.755, 1.747, 1.74, 1.736, 1.732, 1.729, 1.726, 1.724, 1.723, 1.721, 1.72, 1.719, 1.719, 1.718, 1.719, 1.719, 1.721, 1.723, 1.726, 1.729, 1.733, 1.738, 1.746, 1.754, 1.762, 1.77, 1.773, 1.776,
                            1.777, 1.776, 1.775, 1.767, 1.759, 1.751, 1.744, 1.739, 1.736, 1.733, 1.73, 1.728, 1.727, 1.726, 1.725, 1.725, 1.724, 1.724, 1.724, 1.724, 1.725, 1.727, 1.73, 1.733, 1.738, 1.743, 1.751, 1.759, 1.767, 1.775, 1.776, 1.777
                        ]
                    }
                ],
                "calibrations_Cb": [
                    {
                        "ct": 5440,
                        "table":
                        [
                            1.547, 1.549, 1.551, 1.554, 1.558, 1.563, 1.57, 1.574, 1.578, 1.581, 1.585, 1.586, 1.587, 1.586, 1.585, 1.586, 1.586, 1.587, 1.588, 1.588, 1.588, 1.588, 1.587, 1.585, 1.581, 1.577, 1.571, 1.565, 1.562, 1.558, 1.556, 1.555,
                            1.548, 1.55, 1.552, 1.556, 1.56, 1.567, 1.574, 1.578, 1.582, 1.585, 1.589, 1.59, 1.591, 1.591, 1.589, 1.589, 1.59, 1.59, 1.591, 1.591, 1.591, 1.591, 1.59, 1.589, 1.584, 1.58, 1.574, 1.569, 1.565, 1.561, 1.558, 1.556,
                            1.55, 1.551, 1.553, 1.558, 1.562, 1.57, 1.577, 1.582, 1.585, 1.589, 1.593, 1.594, 1.595, 1.595, 1.593, 1.593, 1.593, 1.593, 1.593, 1.594, 1.595, 1.595, 1.594, 1.592, 1.588, 1.583, 1.578, 1.572, 1.568, 1.563, 1.56, 1.557,
                            1.552, 1.553, 1.555, 1.56, 1.565, 1.573, 1.581, 1.585, 1.589, 1.593, 1.596, 1.598, 1.599, 1.599, 1.598, 1.597, 1.596, 1.596, 1.597, 1.597, 1.598, 1.599, 1.598, 1.596, 1.591, 1.586, 1.581, 1.576, 1.571, 1.566, 1.563, 1.559,
                            1.555, 1.557, 1.559, 1.564, 1.569, 1.577, 1.585, 1.589, 1.593, 1.597, 1.6, 1.603, 1.604, 1.604, 1.603, 1.603, 1.603, 1.603, 1.603, 1.603, 1.604, 1.604, 1.603, 1.602, 1.596, 1.591, 1.586, 1.58, 1.575, 1.57, 1.567, 1.564,
                            1.559, 1.561, 1.562, 1.568, 1.574, 1.581, 1.588, 1.593, 1.598, 1.601, 1.604, 1.607, 1.608, 1.609, 1.609, 1.609, 1.609, 1.609, 1.609, 1.609, 1.609, 1.609, 1.608, 1.607, 1.602, 1.596, 1.59, 1.584, 1.579, 1.573, 1.571, 1.569,
                            1.562, 1.564, 1.566, 1.572, 1.578, 1.585, 1.592, 1.598, 1.603, 1.606, 1.609, 1.611, 1.613, 1.614, 1.614, 1.615, 1.615, 1.614, 1.614, 1.614, 1.614, 1.614, 1.613, 1.611, 1.606, 1.601, 1.594, 1.588, 1.582, 1.576, 1.575, 1.574,
                            1.565, 1.567, 1.57, 1.576, 1.582, 1.589, 1.597, 1.603, 1.609, 1.612, 1.614, 1.616, 1.618, 1.619, 1.619, 1.619, 1.619, 1.619, 1.619, 1.619, 1.619, 1.619, 1.618, 1.615, 1.609, 1.604, 1.597, 1.591, 1.585, 1.579, 1.579, 1.578,
                            1.568, 1.57, 1.573, 1.58, 1.586, 1.594, 1.601, 1.608, 1.615, 1.618, 1.62, 1.621, 1.622, 1.623, 1.624, 1.624, 1.624, 1.624, 1.624, 1.624, 1.624, 1.623, 1.622, 1.619, 1.613, 1.606, 1.6, 1.593, 1.588, 1.583, 1.582, 1.582,
                            1.571, 1.574, 1.576, 1.583, 1.589, 1.597, 1.605, 1.611, 1.618, 1.621, 1.623, 1.625, 1.625, 1.626, 1.627, 1.627, 1.627, 1.627, 1.627, 1.627, 1.627, 1.627, 1.625, 1.622, 1.616, 1.609, 1.602, 1.595, 1.59, 1.585, 1.585, 1.585,
                            1.576, 1.577, 1.579, 1.585, 1.592, 1.599, 1.607, 1.613, 1.62, 1.623, 1.625, 1.626, 1.627, 1.628, 1.629, 1.629, 1.63, 1.63, 1.63, 1.63, 1.63, 1.629, 1.626, 1.623, 1.618, 1.612, 1.605, 1.598, 1.592, 1.587, 1.586, 1.586,
                            1.58, 1.581, 1.581, 1.588, 1.594, 1.602, 1.609, 1.615, 1.621, 1.624, 1.627, 1.628, 1.628, 1.629, 1.631, 1.632, 1.632, 1.632, 1.632, 1.632, 1.632, 1.631, 1.627, 1.624, 1.62, 1.615, 1.607, 1.6, 1.594, 1.588, 1.588, 1.587,
                            1.58, 1.581, 1.582, 1.589, 1.595, 1.603, 1.61, 1.616, 1.622, 1.625, 1.628, 1.629, 1.629, 1.63, 1.631, 1.632, 1.633, 1.633, 1.633, 1.633, 1.633, 1.631, 1.628, 1.625, 1.621, 1.616, 1.609, 1.601, 1.595, 1.59, 1.588, 1.587,
                            1.58, 1.581, 1.583, 1.589, 1.596, 1.603, 1.611, 1.617, 1.622, 1.626, 1.629, 1.63, 1.63, 1.631, 1.632, 1.632, 1.632, 1.633, 1.633, 1.633, 1.632, 1.631, 1.629, 1.626, 1.623, 1.618, 1.61, 1.603, 1.597, 1.591, 1.589, 1.587,
                            1.579, 1.581, 1.584, 1.59, 1.596, 1.604, 1.612, 1.618, 1.623, 1.626, 1.63, 1.631, 1.631, 1.631, 1.632, 1.632, 1.632, 1.632, 1.633, 1.633, 1.632, 1.631, 1.63, 1.628, 1.624, 1.619, 1.612, 1.604, 1.598, 1.592, 1.589, 1.587,
                            1.578, 1.581, 1.583, 1.59, 1.597, 1.605, 1.613, 1.619, 1.623, 1.627, 1.63, 1.631, 1.631, 1.631, 1.632, 1.632, 1.632, 1.632, 1.633, 1.633, 1.632, 1.631, 1.63, 1.628, 1.624, 1.62, 1.612, 1.605, 1.598, 1.592, 1.59, 1.588,
